X: 1
T: Sam's Sugar Bush jig
C: by Gerry Smith
R: jig
S: Fiddle Hell Online 2021-11-7 April Verch workshop
Z: 2021 John Chambers <jc:trillian.mit.edu>
M: 6/8
L: 1/8
K: C
AB \
| "C"cGE CEG | "F"DFA "Dm"d2c | "G7"B{cB}AB GAB | "C"cea gAB |
| "C"cGE CEG | "F"DFA "Dm"d2c | "G7"B{cB}AB GAB |1 "C"c3- c :|2 "C"c3- c |
|: ef \
| "C"g2e cde | "F"def "Dm"a2{^g}a | "G7"bag fed | "C"cea gef |
| "C"g2e cde | "F"def "Dm"a2{^g}a | "G7"bag fed |1 "C"c3- c :|2 "C"c3- c :|
